dist/img/project_lyfezy.svg

<svg width="213" height="87" viewBox="0 0 213 87" fill="none" xmlns="http://www.w3.org/2000/svg">
<g filter="url(#filter0_d)">
<path d="M14.5077 59V16.4H24.3477V50.36H44.9877V59H14.5077ZM83.9709 59V37.34H79.9509V30.08H83.9709V27.5C83.9709 25.54 84.2309 23.76 84.7509 22.16C85.2709 20.56 86.0109 19.2 86.9709 18.08C87.9309 16.96 89.0909 16.1 90.4509 15.5C91.8109 14.9 93.3109 14.6 94.9509 14.6C97.5109 14.6 100.251 15.22 103.171 16.46L101.431 23.66C100.791 23.38 100.071 23.16 99.2709 23C98.5109 22.8 97.7909 22.7 97.1109 22.7C94.7509 22.7 93.5709 24.18 93.5709 27.14V30.08H100.891V37.34H93.5709V59H83.9709ZM118.495 59.6C115.855 59.6 113.475 59.18 111.355 58.34C109.275 57.46 107.495 56.28 106.015 54.8C104.575 53.32 103.475 51.62 102.715 49.7C101.955 47.74 101.575 45.7 101.575 43.58C101.575 41.3 101.955 39.16 102.715 37.16C103.475 35.12 104.575 33.34 106.015 31.82C107.455 30.3 109.215 29.1 111.295 28.22C113.415 27.34 115.815 26.9 118.495 26.9C121.175 26.9 123.555 27.34 125.635 28.22C127.715 29.1 129.475 30.3 130.915 31.82C132.355 33.3 133.435 35.02 134.155 36.98C134.915 38.94 135.295 41 135.295 43.16C135.295 43.72 135.275 44.28 135.235 44.84C135.195 45.36 135.135 45.82 135.055 46.22H111.775C111.935 48.34 112.695 49.96 114.055 51.08C115.455 52.16 117.035 52.7 118.795 52.7C120.195 52.7 121.535 52.36 122.815 51.68C124.135 51 125.015 50.08 125.455 48.92L133.615 51.2C132.375 53.68 130.455 55.7 127.855 57.26C125.255 58.82 122.135 59.6 118.495 59.6ZM125.155 40.28C124.955 38.28 124.235 36.7 122.995 35.54C121.755 34.38 120.215 33.8 118.375 33.8C116.495 33.8 114.935 34.4 113.695 35.6C112.495 36.76 111.795 38.32 111.595 40.28H125.155ZM137.258 53.24L153.338 34.16H138.098V27.5H163.358V33.26L147.398 52.34H163.778V59H137.258V53.24ZM169.007 63.74C169.807 64.02 170.547 64.22 171.227 64.34C171.947 64.46 172.587 64.52 173.147 64.52C174.307 64.52 175.207 64.12 175.847 63.32C176.487 62.52 177.067 61.08 177.587 59L165.587 27.5H175.487L182.807 50.78L189.107 27.5H198.107L186.107 64.1C185.267 66.7 183.767 68.8 181.607 70.4C179.447 72.04 176.887 72.86 173.927 72.86C173.127 72.86 172.307 72.78 171.467 72.62C170.667 72.5 169.847 72.28 169.007 71.96V63.74Z" fill="white"/>
<path d="M49.0654 63.74C49.8654 64.02 50.6054 64.22 51.2854 64.34C52.0054 64.46 52.6454 64.52 53.2054 64.52C54.3654 64.52 55.2654 64.12 55.9054 63.32C56.5454 62.52 57.1254 61.08 57.6454 59L45.6454 27.5H55.5454L62.8654 50.78L69.1654 27.5H78.1654L66.1654 64.1C65.3254 66.7 63.8254 68.8 61.6654 70.4C59.5054 72.04 56.9454 72.86 53.9854 72.86C53.1854 72.86 52.3654 72.78 51.5254 72.62C50.7254 72.5 49.9054 72.28 49.0654 71.96V63.74Z" fill="#FF4444"/>
</g>
<defs>
<filter id="filter0_d" x="0.507812" y="0.599609" width="211.599" height="86.26" filterUnits="userSpaceOnUse" color-interpolation-filters="sRGB">
<feFlood flood-opacity="0" result="BackgroundImageFix"/>
<feColorMatrix in="SourceAlpha" type="matrix" values="0 0 0 0 0 0 0 0 0 0 0 0 0 0 0 0 0 0 127 0"/>
<feOffset/>
<feGaussianBlur stdDeviation="7"/>
<feColorMatrix type="matrix" values="0 0 0 0 0 0 0 0 0 0 0 0 0 0 0 0 0 0 0.25 0"/>
<feBlend mode="normal" in2="BackgroundImageFix" result="effect1_dropShadow"/>
<feBlend mode="normal" in="SourceGraphic" in2="effect1_dropShadow" result="shape"/>
</filter>
</defs>
</svg>

<svg xmlns="http://www.w3.org/2000/svg" width="213" height="87" fill="none" xmlns:v="https://vecta.io/nano"><g filter="url(#A)"><path d="M14.508 59V16.4h9.84v33.96h20.64V59h-30.48zm69.463 0V37.34h-4.02v-7.26h4.02V27.5c0-1.96.26-3.74.78-5.34s1.26-2.96 2.22-4.08a9.66 9.66 0 0 1 3.48-2.58c1.36-.6 2.86-.9 4.5-.9 2.56 0 5.3.62 8.22 1.86l-1.74 7.2c-.64-.28-1.36-.5-2.16-.66-.76-.2-1.48-.3-2.16-.3-2.36 0-3.54 1.48-3.54 4.44v2.94h7.32v7.26h-7.32V59h-9.6zm34.524.6c-2.64 0-5.02-.42-7.14-1.26-2.08-.88-3.86-2.06-5.34-3.54a15.34 15.34 0 0 1-3.3-5.1c-.76-1.96-1.14-4-1.14-6.12 0-2.28.38-4.42 1.14-6.42.76-2.04 1.86-3.82 3.3-5.34s3.2-2.72 5.28-3.6c2.12-.88 4.52-1.32 7.2-1.32s5.06.44 7.14 1.32 3.84 2.08 5.28 3.6c1.44 1.48 2.52 3.2 3.24 5.16.76 1.96 1.14 4.02 1.14 6.18l-.06 1.68c-.04.52-.1.98-.18 1.38h-23.28c.16 2.12.92 3.74 2.28 4.86a7.56 7.56 0 0 0 4.74 1.62c1.4 0 2.74-.34 4.02-1.02 1.32-.68 2.2-1.6 2.64-2.76l8.16 2.28c-1.24 2.48-3.16 4.5-5.76 6.06s-5.72 2.34-9.36 2.34zm6.66-19.32c-.2-2-.92-3.58-2.16-4.74s-2.78-1.74-4.62-1.74c-1.88 0-3.44.6-4.68 1.8-1.2 1.16-1.9 2.72-2.1 4.68h13.56zm12.103 12.96l16.08-19.08h-15.24V27.5h25.26v5.76l-15.96 19.08h16.38V59h-26.52v-5.76zm31.749 10.5a14.3 14.3 0 0 0 2.22.6c.72.12 1.36.18 1.92.18 1.16 0 2.06-.4 2.7-1.2s1.22-2.24 1.74-4.32l-12-31.5h9.9l7.32 23.28 6.3-23.28h9l-12 36.6c-.84 2.6-2.34 4.7-4.5 6.3-2.16 1.64-4.72 2.46-7.68 2.46-.8 0-1.62-.08-2.46-.24-.8-.12-1.62-.34-2.46-.66v-8.22z" fill="#fff"/><path d="M49.065 63.74a14.3 14.3 0 0 0 2.22.6c.72.12 1.36.18 1.92.18 1.16 0 2.06-.4 2.7-1.2s1.22-2.24 1.74-4.32l-12-31.5h9.9l7.32 23.28 6.3-23.28h9l-12 36.6c-.84 2.6-2.34 4.7-4.5 6.3-2.16 1.64-4.72 2.46-7.68 2.46-.8 0-1.62-.08-2.46-.24-.8-.12-1.62-.34-2.46-.66v-8.22z" fill="#f44"/></g><defs><filter id="A" x=".508" y=".6" width="211.599" height="86.26" filterUnits="userSpaceOnUse" color-interpolation-filters="sRGB"><feFlood flood-opacity="0" result="A"/><feColorMatrix in="SourceAlpha" values="0 0 0 0 0 0 0 0 0 0 0 0 0 0 0 0 0 0 127 0"/><feOffset/><feGaussianBlur stdDeviation="7"/><feColorMatrix values="0 0 0 0 0 0 0 0 0 0 0 0 0 0 0 0 0 0 0.25 0"/><feBlend in2="A"/><feBlend in="SourceGraphic"/></filter></defs></svg>
